svg/fluentui-system-icons/ic_fluent_run_20_filled.svg

<svg width="20" height="20" viewBox="0 0 20 20" fill="none" xmlns="http://www.w3.org/2000/svg">
<path d="M9.3143 2.03576C9.42411 1.99184 9.54592 1.98826 9.65811 2.02566L15.6581 4.02566C15.8495 4.08946 15.9838 4.26203 15.9986 4.46323C16.0135 4.66435 15.906 4.8547 15.7262 4.94592L15.7213 4.9484L15.7019 4.95851C15.6843 4.96777 15.6575 4.98202 15.6227 5.00099C15.5531 5.03896 15.4519 5.09567 15.329 5.16896C15.0824 5.31603 14.7522 5.52742 14.4152 5.7856C14.0766 6.04505 13.7423 6.34323 13.4794 6.66178C13.2588 6.92912 13.1049 7.19101 13.0287 7.43943L14.8878 11.1576L16.8867 12.4902C17.5822 12.9539 18 13.7345 18 14.5704V16.5C18 16.7673 17.7897 16.9873 17.5227 16.9995L17.5 16.5C17.5227 16.9995 17.5227 16.9995 17.5227 16.9995L17.5214 16.9995L17.5191 16.9996L17.5116 16.9999L17.4847 17.0009C17.4616 17.0017 17.4283 17.0026 17.3852 17.0034C17.2991 17.0051 17.1742 17.0064 17.0148 17.0049C16.6961 17.0018 16.2392 16.9877 15.6796 16.9438C14.5615 16.8559 13.0268 16.6483 11.3614 16.1679C8.03558 15.2085 4.13192 13.1421 2.04759 8.7129C1.98236 8.57428 1.98428 8.41342 2.05279 8.27639C2.69569 6.99058 3.87752 5.68875 5.19204 4.59119C6.51044 3.49039 8.00513 2.55943 9.3143 2.03576ZM17 15.4655C9.58721 14.8666 5.58868 11.2695 3.44919 7.88546C3.3042 8.09492 3.17377 8.30345 3.05985 8.50965C5.00028 12.4287 8.52282 14.3083 11.6386 15.2071C13.2232 15.6642 14.6885 15.8628 15.7579 15.9468C16.2777 15.9877 16.7025 16.0013 17 16.0047V15.4655ZM5.96047 5.25337L7.85356 7.14645C7.96484 7.25774 8.01723 7.41492 7.99498 7.57072L7.51009 10.9649C8.21279 11.5278 9.00583 12.0542 9.90104 12.521L11.3865 10.9253L9.06293 6.74285C8.96279 6.5626 8.98357 6.33937 9.11525 6.18071C9.24693 6.02204 9.46251 5.96048 9.65812 6.02568L12.1772 6.86539C12.3117 6.55834 12.5008 6.27652 12.7081 6.0253C13.0356 5.62853 13.4327 5.27858 13.8071 4.9918C13.9802 4.85918 14.1508 4.73824 14.3108 4.63065L9.51834 3.03316C8.40537 3.50445 7.12518 4.29967 5.96047 5.25337ZM13.759 13.9476C14.7513 14.1872 15.8279 14.3633 16.9961 14.4618C16.9627 14.0019 16.7191 13.5803 16.332 13.3223L14.6813 12.2218L13.759 13.9476Z" fill="#212121"/>
</svg>

<svg xmlns="http://www.w3.org/2000/svg" width="20" height="20"><path d="M9.314 2.036a.5.5 0 0 1 .344-.01l6 2a.5.5 0 0 1 .068.92l-.005.002-.02.01-.078.043a9.676 9.676 0 0 0-1.207.785 5.75 5.75 0 0 0-.937.876c-.22.267-.374.529-.45.777l1.859 3.719 1.999 1.332A2.5 2.5 0 0 1 18 14.57v1.93a.5.5 0 0 1-.477.5l-.023-.5.023.5h-.038a12.791 12.791 0 0 1-.47.004 21.978 21.978 0 0 1-5.653-.837c-3.326-.958-7.23-3.025-9.314-7.454a.5.5 0 0 1 .005-.437c.643-1.285 1.825-2.587 3.139-3.685 1.318-1.1 2.813-2.032 4.122-2.555ZM17 15.466c-7.413-.6-11.411-4.196-13.55-7.58a6.924 6.924 0 0 0-.39.624c1.94 3.919 5.463 5.798 8.579 6.697a20.971 20.971 0 0 0 5.361.798v-.54ZM5.96 5.253l1.894 1.893a.5.5 0 0 1 .141.425l-.485 3.394c.703.563 1.496 1.09 2.391 1.556l1.486-1.596-2.324-4.182a.5.5 0 0 1 .595-.717l2.52.84a3.62 3.62 0 0 1 .53-.84 6.776 6.776 0 0 1 1.1-1.034 9.04 9.04 0 0 1 .503-.361L9.518 3.033C8.405 3.504 7.125 4.3 5.96 5.253Zm7.799 8.695c.992.24 2.069.415 3.237.514a1.5 1.5 0 0 0-.664-1.14l-1.65-1.1-.923 1.726Z"/></svg>
